X:1
T:Tam Lane (Tam Lin, etc.)
M:3/4
L:1/4
K:C
 z2 G,| C2 C| B,2 C| D2 E| C3-| C z G| A2 A| G2 E| G3-| G z G| A2 A|\
 E2 E| E- D C| C3-| C zE/2-D/2| C2 C| G2 G| C2 B,| A,3| G2 C| E2 D|\
 C3|
